!!!!SEGMENT: 028-1-BH-002.krn
!!!COM: Chopin, Fryderyk
!!!OTL: Preludium No. 2
!!!OPS: Op. 28
!!!PTL: Vingt-quatre PRELUDES pour le Piano
!!!PPR: Breitkopf & Härtel
!!!PPP: Leipzig
!!!NIFC-rismID: 1001013101
!!!NIFC-shelfmark: PL-Wbfc 4372/n
!!!OMD: No. 2.
!!!OMD: Lento.
**kern	**kern	**dynam
*part1	*part1	*part1
*staff2	*staff1	*
*clefF4	*clefG2	*
*k[]	*k[]	*
*a:	*a:	*
*M2/2	*M2/2	*
*MM63	*MM63	*
*met(c|)	*met(c|)	*
=1	=1	=1
*^	*	*
!	!LO:TX:t=P:nie wyświetka się "Lento." (!!!OMD):problem	!	!
!	!	!	!LO:DY:rj
(>/8BBL	8EE\L	1rdd	p
!LO:TX:a:t=P:note position:8AA# przed 8G:problem	!	!	!
8AA#	8G	.	.
8BB	8EE	.	.
!LO:TX:a:t=P:note position:8GG przed 8G:problem	!	!	!
8GGJ	8GJ	.	.
8BB/L	8EE\L	.	.
!LO:TX:a:t=P:note position:8AA#X przed 8G:problem	!	!	!
8AA#X	8G	.	.
8BB	8EE	.	.
!LO:TX:a:t=P:note position:8GG przed 8G:problem	!	!	!
8GGJ	8GJ	.	.
=2	=2	=2	=2
8BB/L	8EE\L	1rdd	.
!LO:TX:a:t=P:note position:8AA# przed 8G:problem	!	!	!
8AA#	8G	.	.
8BB	8EE	.	.
!LO:TX:a:t=P:note position:8GG przed 8G:problem	!	!	!
8GGJ	8GJ	.	.
8BB/L	8EE\L	.	.
!LO:TX:a:t=P:note position:8AA# przed 8G:problem	!	!	!
8AA#X	8G	.	.
8BB	8EE	.	.
!LO:TX:a:t=P:note position:8GG przed 8G:problem	!	!	!
8GGJ	8GJ	.	.
*v	*v	*	*
=3	=3	=3
8BBL\ 8EE\	(<2..e	.
8G 8AA#X	.	.
8BB 8EE	.	.
8GJ 8GG	.	.
8BBL\ 8EE\	.	.
8G 8AA#	.	.
8BB 8EE	.	.
8GJ 8GG	8B	.
=4	=4	=4
8BBL\ 8DD\	1d)	.
8G 8AA#X	.	.
8BB 8DD	.	.
8GJ 8GG	.	.
8BBL\ 8DD\	.	.
8G 8AA#	.	.
8BB 8DD	.	.
8GJ 8GG	.	.
!!LO:LB:g=original
=5	=5	=5
8AAL\ 8DD\	(>4.d	.
8Gn 8GG#X	.	.
8AA 8DD	.	.
.	8qf#X/	.
8GJ 8GGn	8e	.
8AAL\ 8DD\	4.d	.
8F#X 8GG#X	.	.
8AA 8DD	.	.
8F#J 8FF#X	8A	.
=6	=6	=6
8GGL\ 8GGG\	4B	.
8G 8E	.	.
8D 8GG	8.BL	.
8GJ 8E-X	.	.
.	16BJk	.
8D\L 8GG\	[<2B	.
8G 8En	.	.
8D 8GG	.	.
8GJ 8E-X	.	.
=7	=7	=7
8D\L 8GG\	2B])	.
8G 8En	.	.
8D 8GG	.	.
8GJ 8E-X	.	.
8D\L 8GG\	2r	.
8G 8En	.	.
8D 8GG	.	.
8GJ 8E)	.	.
=8	=8	=8
(>\8F#XL 8BB\	2r	.
8d 8E#X	.	.
8F# 8BB	.	.
8dJ 8D	.	.
8F#\L 8BB\	(>4.b	.
8d 8E#	.	.
8F# 8BB	.	.
8dJ 8D	8f#X	.
!!LO:LB:g=original
=9	=9	=9
8F#X\L 8AA\	1a)	.
8d 8E#X	.	.
8F# 8AA	.	.
8dJ 8D	.	.
8F#\L 8AA\	.	.
8d 8D	.	.
8F# 8AA	.	.
8dJ 8D	.	.
=10	=10	=10
8E\L 8AA\	(>4.a	.
8dn 8D#X	.	.
8E 8AA	.	.
.	8qcc#X/	.
8dJ 8Dn	8b	.
8E\L 8AA\	4.a	.
8c#X 8D#X	.	.
8E 8AA	.	.
8c#J 8C#X	8e	.
=11	=11	=11
8D#X\L 8AA\	4f#X	.
8c#X 8C##X	.	.
!	!	!LO:HP:a
8D# 8AA	8.f#L	<
8c#J 8C#X	.	.
.	16f#Jk	.
8D#\L 8AA\	[>2f#	.
8c#X 8C##X	.	[
8D# 8AA	.	.
8c#J 8C#X	.	.
=12	=12	=12
8D#XL 8AA	2f#X])	.
8c#X 8C##X	.	.
8D# 8AA	.	.
8c#J 8C#X	.	.
8D#L 8AA	2r	.
8cn 8C##X	.	.
8D# 8AA	.	.
8cJ 8Cn)	.	.
!!LO:LB:g=original
=13	=13	=13
8D#XL\ 8FF#X\	1rdd	.
8A 8C##X	.	.
8D# 8FF#	.	.
8AJ 8Cn	.	.
!	!LO:TX:a:Bi:t=dim_:problem:dynamics with extention lines	!
!	!	!LO:HP:Bi:a:t=dim:ext=ud
!	!	!LO:HP:a
8D#L\ 8FF#\	.	>
8A 8C##X	.	.
8D# 8FF#	.	.
8AJ 8Cn	.	.
=14	=14	=14
8D#XL\ 8FF#X\	4r	.
8A 8C##X	.	.
8D# 8FF#	(>[<2.a	.
8AJ 8Cn	.	.
8D#L\ 8FFn\	.	.
8A 8C##X	.	.
8D# 8FF	.	.
8AJ 8BB	.	.
=15	=15	=15
8CL\ 8EE	2..a]	.
8A 8BB	.	.
8C 8EE	.	.
8AJ 8AA	.	.
8CL\ 8EE	.	.
8A 8BB	.	.
8C 8EE	.	.
8AJ 8AA	8e	.
=16	=16	=16
8CL\ 8EE	1f^<	.
*	*	*
8A 8BB	.	.
8C 8EE	.	.
8AJ 8AA	.	.
8CL\ 8EE	.	.
8A 8BB	.	.
8C 8EE	.	.
8AJ 8AA	.	.
=17	=17	=17
1rF	4.f	.
.	8qa/	.
.	8g	.
!	!LO:TX:Bi:b:t=slen_tando.:dur=3q:ext=ud:problem:text with extention lines	!
.	4.f	.
.	8c	.
.	.	]
!!LO:LB:g=original
=18	=18	=18
2r	4d	.
.	8.dL	.
.	16dJk	.
*ped	*	*
8CL\ 8EE	[<2d	.
8F 8BB	.	.
8C 8EE	.	.
8FJ 8AA	.	.
=19	=19	=19
8CL\ 8EE	2d])	.
8F 8BB	.	.
8C 8EE	.	.
8FJ 8AA	.	.
*Xped	*	*
.	.	.
2r	2r	.
=20	=20	=20
!	!LO:TX:t=P:rendering:złe wyświetlanie łuku:problem	!
1rF	(>4.d	.
.	8qf/	.
.	8e	.
.	4.d	.
.	N[<8A	.
=21	=21	=21
2A>N]	4B	.
.	8.BL	.
.	16BJk	.
!	!LO:TX:Bi:b:t=sostenuto.	!
4EE	4B< 4G#X< 4E<	.
4BB 4BBB	4B< 4F#X< 4D#X<	.
=22	=22	=22
*	*^	*
2BB 2EE	2B< 2G#X< 2E<	2ryy	.
2EE 2EEE	2G#<: 2E< 2D<	4.B:	.
.	.	8c	.
*	*v	*v	*
=23	=23	=23
!	!LO:TX:t=P:fermata nad górną pięciolinią:problem	!
!	!LO:TX:t=P:obie kreski taktowe kończące utwór są grube:problem	!
!LO:TX:t=P:w źródle jest jedno arpeggio, a nie dwa oddzielne:problem	!	!
1EE: 1AAA:	1A<;: 1E<: 1C<:)	.
!LO:TX:b:t=Fine.	!	!
.	.	.
==	==	==
*-	*-	*-
!!title: @{OTL}; @{OPS} @{ONM} publisher: @{PPR}
!!!RDF**kern: > = above
!!!RDF**kern: < = below
!!!RDF**kern: N = linked
!!!RDF**dynam: > = "dim", fontstyle = "bold-italic"
!!!ENC: Marta Lawrence
!!!END: 2019-06-01
!!!EED: Emilia Ziętek
!!!EST: revision finished 2019-06-12
!!!EED2: Antoni Szymański
!!!EST2: 2020-04-23
!!!rism-genre: Prelude
!!!rism-key: A minor
!!!rism-opus: op.  28, no. 2
!!!rism-title: Prelude in A minor op.  28, no. 2
!!!rism-permalink: https://opac.rism.info/search?id=1001013101&View=rism
!!!rism-773a-OPR: 1001013083
!!!rism-parent-permalink: https://opac.rism.info/search?id=1001013083&View=rism
